svg/vscode-codicons/compass-active.svg

<svg width="16" height="16" viewBox="0 0 16 16" xmlns="http://www.w3.org/2000/svg" fill="currentColor"><path fill-rule="evenodd" clip-rule="evenodd" d="M9.10146 13.8991C8.90419 13.9357 8.70353 13.9627 8.49999 13.9795V13H7.49999V13.9795C4.57233 13.7379 2.24067 11.3945 2.0175 8.46167H3V7.46167H2.02382C2.28141 4.56475 4.59788 2.25996 7.49999 2.02054V3H8.49999V2.02054C11.4149 2.26101 13.739 4.5851 13.9795 7.5H13V8.5H13.9795C13.9627 8.70354 13.9357 8.90419 13.8991 9.10146C14.2338 9.17833 14.5524 9.29718 14.8492 9.45217C14.948 8.98368 15 8.49791 15 8C15 4.13401 11.866 1 8 1C4.13401 1 1 4.13401 1 8C1 11.866 4.13401 15 8 15C8.49791 15 8.98368 14.948 9.45217 14.8492C9.29718 14.5524 9.17833 14.2338 9.10146 13.8991ZM9.90369 10.4675L6.99115 9.00874L4.96667 4.96655L9.00885 6.99103L10.4676 9.90359C10.2614 10.0724 10.0725 10.2613 9.90369 10.4675ZM9.43542 9.4353L8.48073 7.51916L6.56458 6.56447L7.51927 8.48062L9.43542 9.4353Z"/><path fill-rule="evenodd" clip-rule="evenodd" d="M11.3333 10.5056C11.8266 10.1759 12.4067 10 13 10C13.7954 10.001 14.5578 10.3174 15.1202 10.8798C15.6826 11.4422 15.999 12.2046 16 13C16 13.5933 15.8241 14.1734 15.4944 14.6667C15.1648 15.1601 14.6962 15.5446 14.1481 15.7716C13.5999 15.9987 12.9967 16.0581 12.4147 15.9424C11.8328 15.8266 11.2982 15.5409 10.8787 15.1213C10.4591 14.7018 10.1734 14.1672 10.0576 13.5853C9.94189 13.0033 10.0013 12.4001 10.2284 11.8519C10.4554 11.3038 10.8399 10.8352 11.3333 10.5056ZM13.0315 14.3226L14.8213 11.9363L14.0213 11.3363L12.541 13.3099L11.6655 12.6095L11.0408 13.3903L12.3192 14.413L13.0315 14.3226Z"/></svg>

<svg xmlns="http://www.w3.org/2000/svg" width="16" height="16" viewBox="0 0 16 16"><path fill-rule="evenodd" d="M9.101 13.9a6.004 6.004 0 0 1-.601.08V13h-1v.98a6.001 6.001 0 0 1-5.482-5.518H3v-1h-.976A6.001 6.001 0 0 1 7.5 2.02V3h1v-.98a6.001 6.001 0 0 1 5.48 5.48H13v1h.98a6.004 6.004 0 0 1-.08.601c.334.077.652.196.95.351a7 7 0 1 0-5.397 5.397 3.973 3.973 0 0 1-.352-.95Zm.803-3.433L6.99 9.01 4.967 4.967 9.009 6.99l1.459 2.913a4.02 4.02 0 0 0-.564.563Zm-.469-1.032L8.481 7.52l-1.916-.955.954 1.917 1.916.954Z" clip-rule="evenodd"/><path fill-rule="evenodd" d="M11.333 10.506a3 3 0 1 1 3.333 4.987 3 3 0 0 1-3.333-4.987Zm1.698 3.817 1.79-2.387-.8-.6-1.48 1.974-.876-.7-.624.78 1.278 1.023.712-.09Z" clip-rule="evenodd"/></svg>
